X:2706
T:Polonäs ur Lars Larssons notbok
S:efter Lars Larsson
O:Kumla, Västmanland
B:Lars Larssons notbok, nr 74
B:http://www.smus.se/earkiv/fmk/browselarge.php?lang=sw&katalogid=Ma+18&bildnr=00023
R:Slängpolska
Z:Nils L
N:Repristecken ej utsatta i originalet.
M:3/4
L:1/16
K:G
G,A,B,C DB,DG BGBd | eceg fdfa g2g2 | eceg fdfa g2c2 | BAGF G4 G,4 ::
dBGd dBGd d2d2 | e2d2 d2cB c4 | ecAc ecAc e2ef | g2g2 fed^c d4 | 
d2ef gfed cBAG | BAGF G4 G,4 :| 
(:musicend:)
(:music:)
